X:1
T:Title
%%score { ( 1 2 ) | ( 3 4 ) }
L:1/8
Q:1/4=93
M:6/8
K:Ab
V:1 treble nm="Grand Piano"
V:2 treble 
V:3 bass 
V:4 bass 
V:1
 [CE]3 .[CF]3 | .[DB]3 z3 | c3 .c3 | [Gd]6 | [GB]3 .[Ac]3 | .[Ae]3 z3 | z3 A3 | B6[K:bass] | %8
w: Geo.~C.~Stebbins *||||||||
 [CE]3[K:treble] .[CF]3 | .[DB]3 .[CA]3 | .E3 e3 | [Fd]6 | [Fd]3 .[Ec]3 | .e3 .[FA]3 | z3 G3 | %15
w: |||||||
 [CA]6 | .[Ec]3 [Ec]-[EGc]c | d2 G G3 | d3 .B3 | e6 | e3 c2 [EB] | [EA]2 [CF] [DG]2 [EA] | z3 B3 | %23
w: ||||||||
 B6 | E3 z3 | [DB]2 [CA] [CA]2 B | c3 e3 | [Fd]6 | [Ad]3 [Ae]2 [Af] | %29
w: ||||||
[M:13/16] [Ae]3/2 z [_Gc][Fd]-<[Fd][=DF][Q:1/4=90][Q:1/4=87][Q:1/4=84][Q:1/4=81][Q:1/4=78][Q:1/4=76][Q:1/4=73] | %30
w: |
[M:3/4] z2 z G3 | A6 |] %32
w: ||
V:2
 z A,A, z A,[A,CG] | z A,[A,CA] [A,CA]3 | E2 F z G[Fc] | z3 B,3 | z EE z E[EBd] | z Ec [CA]2 F | %6
 [B,G]3 z EF | E3[K:bass] [E,D]3 | z A,A,[K:treble] z A,[A,CG] | z A,[A,CA] z A,B | %10
 c2- [Fc] z A_G | z3 D3 | z B,B, z G,B | z A,c z A,B | [=DF]3 z E_D | z3 A,3 | z3 .A3 | x6 | %18
 z2 F [Ed]-[EAd][EGc] | z2 G A3 | x6 | x6 | [EB]3 =DEF | z2 =D E2 D | z2 E, F2 [DG] | x6 | %26
 z2 E, _GAG | x6 | x6 |[M:13/16] x13/2 |[M:3/4] A4 ED | [A,C]2 D C3 |] %32
V:3
 z E,E, z E,E, | z E,E, A,,3 | A,,C,E, [A,A]E,C, | B,,E,G, B,,3 | z B,B, z A,[D,A,] | %5
 z A,[A,E] z2 C | B,,E,G, [B,=D]F,B,, | E,,B,,E, E,,3 | z E,E, z E,E, | z E,E, z E,[E,A,D] | %10
 A,,C,E, [A,_G]E,C, | D,F,A, D,3 | z F,F, z E,[E,G,D] | C-[E,C][E,A,E] z F,[F,A,E] | %14
 B,,F,A, [E,D]B,,E,, | A,,C,E, A,,3 | z2[K:treble] F E,2 [A,CF] | [G,B,E]2 [B,DE] [B,DE]3 | %18
 .[B,G]3[K:bass] z3 | [A,CA]2 [E,B,] [A,C]3 | [A,CE]3 [E,A,E]2 [D,G,] | %21
 [C,A,]2 [A,,A,] [B,,E,]2 [C,A,] | z3 .F,3 | [E,G,E]2 [B,,F,] [E,G,]3 | [A,C]3 [C,A,C]2 [B,,E,] | %25
 [A,,E,]2 [A,,E,] [A,,A,]2 [E,G,D] | z3 A,3 | [D,A,]6 | [F,D]3 [E,C]2 [D,D] | %29
[M:13/16] [C,A,]3/2 z [A,,A,][D,A,]-<[D,A,][B,,B,] |[M:3/4] [E,CE]3 [B,D] CB, | z2 F, E,3 |] %32
V:4
 A,,3 A,,3 | A,,3 z3 | x6 | x6 | .E,3 .E,3 | C,3 [F,,F,]3 | x6 | x6 | .A,,3 .A,,3 | A,,3 A,,3 | %10
 x6 | x6 | .B,,3 .E,,3 | A,,3 F,,3 | x6 | x6 | A,3[K:treble] z3 | x6 | E2- [A,E][K:bass] G,F,E, | %19
 x6 | x6 | x6 | [B,,G,]3 B,,-[B,,-G,][B,,A,] | x6 | x6 | x6 | [A,E]3 C,2 A,, | x6 | x6 | %29
[M:13/16] x13/2 |[M:3/4] z2 z E,3 | A,,6 |] %32

